X: 41619
T: Up Leitrim
R: jig
M: 6/8
K: Dmajor
|:f2e dBA|BAB dBA|f2e dBA|1 Bdf e2d:|2 Bdf ede||
faa gbb|faa afe|faa b2b|afd e2d|
faa gbb|faa afe|f2e dBA|Bdf ede||

